X: 16
T: 16. Es woll' uns Gott gen\"adig sein
N: Derived from chor016.krn
C: Johann Sebastian Bach
%%abc-version 2.0
%%abcx-abcm2ps-target-version 5.9.1 (29 Sep 2008)
%%abc-creator hum2abc beta
%%abcx-conversion-date 2019/03/11 17:28:17
%%abc-edited-by Craig Stuart Sapp
%%humdrum-veritas 2018134745
%%humdrum-veritas-data 576826035
%%
%%barnumbers 0
L: 1/4
M: C
%%staves [1 2 3 4]
V: 1 clef=treble
V: 2 clef=treble
V: 3 clef=treble-8
V: 4 clef=bass
K: D
[V:1] c [I:setbarnb 1]| 
[V:2] F | 
[V:3] ^A | 
[V:4] F, | 
[V:1] dcBc/d/ | 
[V:2] FFGA | 
[V:3] Bc/d/eA | 
[V:4] B,=A,G,F, | 
[V:1] efed | 
[V:2] GF/^G/^AB | 
[V:3] B/c/def | 
[V:4] E,D,C,B,, | 
[V:1] !fermata!c2ze | 
[V:2] !fermata!^A2xc | 
[V:3] !fermata!f2xf | 
[V:4] !fermata!F,2z^A, | 
[V:1] dcdB | 
[V:2] B/=A/GAG/F/ | 
[V:3] fedd | 
[V:4] B,E,F,G, | 
[V:1] AF/G/AG | 
[V:2] ED/E/FE/=D/ | 
[V:3] eA/B/=cB | 
[V:4] C,D,^D,E, | 
[V:1] !fermata!F3 :|]  
[V:2] !fermata!C3 :|]  
[V:3] !fermata!^A3 :|]  
[V:4] !fermata!F,3 :|]  
[V:1] A [I:setbarnb 7]| 
[V:2] C | 
[V:3] =A | 
[V:4] F, | 
[V:1] GFEF | 
[V:2] DDCC | 
[V:3] BAA/G/F | 
[V:4] B,,/C,/D,A,,^A,, | 
[V:1] DE!fermata!Fc | 
[V:2] D/C/B,!fermata!CF | 
[V:3] FB!fermata!^A^A | 
[V:4] B,,G,,!fermata!F,,F, | 
[V:1] dcBc/d/ | 
[V:2] F/^G/^ABA/B/ | 
[V:3] Befe/d/ | 
[V:4] B,CDC/B,/ | 
[V:1] ed!fermata!cf | 
[V:2] c/F/F!fermata!F=A | 
[V:3] cB!fermata!^AB | 
[V:4] ^A,B,!fermata!F,^D, | 
[V:1] e/d/c/d/eB | 
[V:2] ^GAEE | 
[V:3] B=AB/A/^G | 
[V:4] E,F,^G,/F,/E,/D,/ | 
[V:1] A=G!fermata!FE | 
[V:2] E/D/E/C/!fermata!DC | 
[V:3] AA!fermata!AA | 
[V:4] C,/B,,/C,/A,,/!fermata!D,A,/^G,/ | 
[V:1] ABc/d/e | 
[V:2] C/^D/EE/F/ G/F/ | 
[V:3] A^G^A/B/c- | 
[V:4] F,E,/=D,/ C,/B,,/^A,, | 
[V:1] dc!fermata!Bd | 
[V:2] F/^G/A!fermata!GF | 
[V:3] c/B/e!fermata!eA/B/ | 
[V:4] B,,C,/^D,/!fermata!E,F,/^G,/ | 
[V:1] cBA/G/ F/G/ | 
[V:2] E/F/=GF/E/D | 
[V:3] cddA | 
[V:4] A,B,/C/DD, | 
[V:1] AGF2- | 
[V:2] E2-ED- | 
[V:3] ABcB- | 
[V:4] =C,B,,^A,,B,, | 
[V:1] !fermata!F3 |]  
[V:2] DC/B,/!fermata!C |]  
[V:3] B^A/^G/!fermata!^A |]  
[V:4] !fermata!F,,3 |]  



